X: 119
T: Pollonesse #119
M: 3/4
L: 1/16
R: Pollonesse
K: G
Q: 110
g2fg a4 g2f2|g2d2 d2c2 c2B2|g2fg a4 g2f2|g2d2 d2c2 c2B2|e2ce g4 agfe|
d2Bd g4d4|d2ed c2B2 A2G2|FAGF G4G,4:|
|:f2a2 a2g2 g2f2|e2d^c d4D4|f2a2 a2g2 g2f2|e2d^c d4D2c2|
B2d2 d2c2 c2B2|A2GF G4G,4|B2d2 d2c2 c2B2|A2GF G8|
e2ce g4 agfe|d2Bd g4d4|d2ed c2B2 A2G2|FAGF G4G,4:|

